src/Components/Menu/images/Users.svg

<svg width="24" height="24" viewBox="0 0 24 24" fill="none" xmlns="http://www.w3.org/2000/svg">
<g clip-path="url(#clip0_10_96)">
<path fill-rule="evenodd" clip-rule="evenodd" d="M16.67 13.1299C18.04 14.0599 19 15.3199 19 16.9999V19.9999H23V16.9999C23 14.8199 19.43 13.5299 16.67 13.1299Z" fill="white"/>
<path d="M9 12C11.2091 12 13 10.2091 13 8C13 5.79086 11.2091 4 9 4C6.79086 4 5 5.79086 5 8C5 10.2091 6.79086 12 9 12Z" fill="white"/>
<path fill-rule="evenodd" clip-rule="evenodd" d="M15 12C17.21 12 19 10.21 19 8C19 5.79 17.21 4 15 4C14.53 4 14.09 4.1 13.67 4.24C14.5 5.27 15 6.58 15 8C15 9.42 14.5 10.73 13.67 11.76C14.09 11.9 14.53 12 15 12Z" fill="white"/>
<path fill-rule="evenodd" clip-rule="evenodd" d="M9 13C6.33 13 1 14.34 1 17V20H17V17C17 14.34 11.67 13 9 13Z" fill="white"/>
</g>
<defs>
<clipPath id="clip0_10_96">
<rect width="24" height="24" fill="white"/>
</clipPath>
</defs>
</svg>

<svg width="24" height="24" fill="none" xmlns="http://www.w3.org/2000/svg"><g clip-path="url(#a)" fill="#fff"><path fill-rule="evenodd" clip-rule="evenodd" d="M16.67 13.13C18.04 14.06 19 15.32 19 17v3h4v-3c0-2.18-3.57-3.47-6.33-3.87Z"/><path d="M9 12a4 4 0 1 0 0-8 4 4 0 0 0 0 8Z"/><path fill-rule="evenodd" clip-rule="evenodd" d="M15 12c2.21 0 4-1.79 4-4s-1.79-4-4-4c-.47 0-.91.1-1.33.24a5.98 5.98 0 0 1 0 7.52c.42.14.86.24 1.33.24ZM9 13c-2.67 0-8 1.34-8 4v3h16v-3c0-2.66-5.33-4-8-4Z"/></g><defs><clipPath id="a"><path fill="#fff" d="M0 0h24v24H0z"/></clipPath></defs></svg>
